X:1
T:Xiao He Cai Lian (Picking Lotus)
C:Trad Chinese (Tang Dynasty tradition)
S:Public domain — traditional Chinese folk melody
M:6/8
L:1/8
Q:3/8=80
K:D
H:D pentatonic (D E G A B). Gentle 6/8 feel, picking motion.
H:Range D4-B4 (1st octave of D xiao).
D3 E3 | G3 A3 | G3 E3 | D6 |
D3 G3 | A3 B3 | A3 G3 | D6 |
G3 A3 | B3 d3 | A3 G3 | E6 |
D3 E3 | G3 A3 | G2A GED | D6 |]
